packages/ui-icons/svg/Solid/audio.svg

<svg viewBox="0 0 1920 1920" version="1.1" xmlns="http://www.w3.org/2000/svg">
    <path d="M1129.4317,113 L1129.4317,1807.14754 L903.545357,1807.14754 L451.772678,1355.37487 L451.772678,564.772678 L903.545357,113 L1129.4317,113 Z M1671.9768,361.057083 C1832.01727,521.097555 1920,733.882486 1920,960.107655 C1920,1186.33282 1832.01727,1399.00481 1671.9768,1559.04528 L1671.9768,1559.04528 L1592.12598,1479.19446 C1730.82019,1340.61319 1807.05683,1156.177 1807.05683,960.107655 C1807.05683,763.925369 1730.82019,579.602117 1592.12598,440.907904 L1592.12598,440.907904 Z M338.829509,564.772678 L338.829509,1355.37487 L169.414754,1355.37487 C75.6719236,1355.37487 0,1279.70294 0,1185.96011 L0,1185.96011 L0,734.187433 C0,640.444602 75.6719236,564.772678 169.414754,564.772678 L169.414754,564.772678 L338.829509,564.772678 Z M1432.75187,600.858021 C1528.52768,697.876204 1581.1592,825.501985 1581.1592,960.0173 C1581.1592,1094.64556 1528.52768,1222.27134 1432.75187,1319.28952 L1432.75187,1319.28952 L1352.44928,1240.11636 C1427.10471,1164.21855 1468.21603,1064.71562 1468.21603,960.0173 C1468.21603,855.431925 1427.10471,755.928993 1352.44928,680.031183 L1352.44928,680.031183 Z" stroke="none" stroke-width="1" fill-rule="evenodd"/>
</svg>

<svg viewBox="0 0 1920 1920" xmlns="http://www.w3.org/2000/svg">
    <path d="M1129.432 113v1694.148H903.545l-451.772-451.773V564.773L903.545 113h225.887Zm542.545 248.057C1832.017 521.097 1920 733.882 1920 960.107c0 226.226-87.983 438.898-248.023 598.938l-79.851-79.85c138.694-138.582 214.93-323.018 214.93-519.087 0-196.183-76.236-380.506-214.93-519.2ZM338.83 564.773v790.602H169.415C75.672 1355.375 0 1279.703 0 1185.96V734.187c0-93.742 75.672-169.414 169.415-169.414H338.83Zm1093.922 36.085c95.776 97.018 148.407 224.644 148.407 359.16 0 134.628-52.631 262.253-148.407 359.272l-80.303-79.174c74.656-75.897 115.767-175.4 115.767-280.099 0-104.585-41.111-204.088-115.767-279.986Z" fill-rule="evenodd"/>
</svg>
